!!!OTL: Die Linde im Thal
!!!ARE: Europa, Mitteleuropa, Deutschland
!!!SCT: A0176
!!!YEM: Copyright 1995, estate of Helmut Schaffrath.
**kern
*ICvox
*Ivox
!! Mixed meters:  4/2; 6/2
*M6/2
*k[b-]
*F:
{2r
2f
2f
2a
=1
2g
2f
2e
2e
=2
1d
2r}
{2a
=3
2b-
1g
1f
4e
4d
=4
*M4/2
2e
2f
1d
=5
0c}
=6
{1cc
2cc
2cc
=7
2cc
2a
2f
2a
=8
1g
2f
4e
4d
=9
2e}
{2c
2d
2e
=10
2f
2a
2g
2g
=11
0f}
==
!!!AGN: Romanze, Ballade, Lied
!! Forster V 1556 No. 18.
!!!ONB: ESAC (Essen Associative Code) Database: ALTDEU
!!!AMT: irregular
!!!AIN: vox
!!!EED: Helmut Schaffrath
!!!EEV: 1.0
*-
